!!!!SEGMENT: pl-wnifc--6730-n--004_sowinski-wojciech--chants-religieux-de-la-pologne-op-93-salve-regina-salut-o-toi-mere-auguste-et-cherie.krn
!!!cenid: 18xx:4018
!!!COM: Sowiński, Wojciech
!!!COM-rismID: pe30008543
!!!CDT: ~1803-1880/03/05
!!!CNT:
!!!OTL: Chants religieux de la Pologne op. 93
!!!PDT: 1830
!!!AGN:
!!!SMS-siglum: PL-Wnifc
!!!SMS-shelfmark: 6730/n
!!!SMS-shelfwork: 004 W
!!!SMS-variant:
!!!SMS-altvar:
!!!NIFC-rismSourceID: 1001138221
!!!NIFC-rismChildID: 1001138226
!!!NIFC-islandoraID: nifc:213350
!!!URL-pdf-islandora: https://repozytorium.nifc.pl/islandora/object/nifc%3A213350/datastream/PDF/view
!!!URL-scan: https://polish.musicsources.pl/pl/lokalizacje/galeria/druki-muzyczne/16913 @EN{Scan on Polish Music Sources Website} @PL{Skany w portalu Dziedzictwo Muzyki Polskiej w otwartym dostępie}
!!!ONB-nifc: UWAGA: str. 12-16
!!!AIN: 1 calto 2 organ 2 soprn
!!!key: E
**kern	**kern	**dynam	**kern	**text	**dynam	**kern	**text	**dynam	**kern	**text	**dynam
*part5	*part4	*part4	*part3	*part3	*part3	*part2	*part2	*part2	*part1	*part1	*part1
*staff5	*staff4	*	*staff3	*staff3	*	*staff2	*staff2	*	*staff1	*staff1	*
*I"Organo	*I"ORGUE.	*	*I"CONTRALTO.	*	*	*I"2o. DESSUS.	*	*	*I"1er. DESSUS.	*	*
*	*I'org	*	*I'CA	*	*	*I'2 D	*	*	*I'1 D	*	*
*Iorgan	*Iorgan	*	*Icalto	*	*	*Isoprn	*	*	*Isoprn	*	*
*ICklav	*ICklav	*	*ICvox	*	*	*ICvox	*	*	*ICvox	*	*
*clefF4	*clefG2	*	*clefG2	*	*	*clefG2	*	*	*clefG2	*	*
*k[f#c#g#]	*k[f#c#g#]	*	*k[f#c#g#]	*	*	*k[f#c#g#]	*	*	*k[f#c#g#]	*	*
*E:	*E:	*	*E:	*	*	*E:	*	*	*E:	*	*
*M4/4	*M4/4	*	*M4/4	*	*	*M4/4	*	*	*M4/4	*	*
*met(c)	*met(c)	*	*met(c)	*	*	*met(c)	*	*	*met(c)	*	*
=1	=1	=1	=1	=1	=1	=1	=1	=1	=1	=1	=1
!	!	!	!	!	!	!	!	!	!LO:TX:a:B:t=Allo. risoluto.	!	!
2AAA/ 2AA	2e/ 2a 2cc# 2ee	f	1r	.	.	1r	.	.	1r	.	.
4CC#^/ 4C#	4e/ 4a 4cc# 4ee	.	.	.	.	.	.	.	.	.	.
4EE^/ 4E	4e/ 4b 4dd	.	.	.	.	.	.	.	.	.	.
=2	=2	=2	=2	=2	=2	=2	=2	=2	=2	=2	=2
[2AA^\ [2A	2e^/ 2a 2cc#	.	1r	.	.	1r	.	.	1r	.	.
4AA\] 4A]	2e^/ 2a 2cc#	.	.	.	.	.	.	.	.	.	.
4GG#^\ 4G#	.	.	.	.	.	.	.	.	.	.	.
=3	=3	=3	=3	=3	=3	=3	=3	=3	=3	=3	=3
*	*^	*	*	*	*	*	*	*	*	*	*
4FF#/ 4F#	4a/ 4cc#	4f#/	<	1r	.	.	1r	.	.	1r	.	.
(8D/L	(8b/L	[4f#\	.	.	.	.	.	.	.	.	.	.
8C#/J	8cc#/J	.	.	.	.	.	.	.	.	.	.	.
4BB/)	4dd/)	4f#\]	[ >	.	.	.	.	.	.	.	.	.
4E/	4g#/ 4b	4e\	.	.	.	.	.	.	.	.	.	.
=4	=4	=4	=4	=4	=4	=4	=4	=4	=4	=4	=4	=4
(2EE/ 2E	(2g#^/ 2b	(>4e\	]	1r	.	.	1r	.	.	1r	.	.
.	.	4d\	.	.	.	.	.	.	.	.	.	.
4AA/)	4a/)	4c#\)	.	.	.	.	.	.	.	.	.	.
4r	4r	4ryy	.	.	.	.	.	.	.	.	.	.
*	*v	*v	*	*	*	*	*	*	*	*	*	*
=5	=5	=5	=5	=5	=5	=5	=5	=5	=5	=5	=5
!	!	!	!LO:TX:a:t=1re. STROPHE.	!	!LO:DY:a	!LO:TX:a:t=1re. STROPHE.	!	!LO:DY:a	!LO:TX:a:t=1re. STROPHE.	!	!LO:DY:a
4r	2a\ 2cc# 2ee	f	2a/	Sa-	f	2cc#\	Sa-	f	2ee\	Sa-	f
4AAA/ 4AA	.	.	.	.	.	.	.	.	.	.	.
4CC#/ 4C#	4a\ 4cc# 4ee	.	4c#/	-lut	.	4cc#\	-lut	.	4ee\	-lut	.
4EE/ 4E	4e\ 4g# 4b 4dd	.	4e/	o	.	4b\	o	.	4dd\	o	.
!LO:LB:g=original	!LO:LB:g=original	!	!	!LO:LB:g=original	!	!	!LO:LB:g=original	!	!	!LO:LB:g=original	!
=6	=6	=6	=6	=6	=6	=6	=6	=6	=6	=6	=6
4AA/ 4A	4e/ 4a 4cc#	.	2a/	toi	.	2a/	toi	.	2cc#\	toi	.
4r	4c#/ 4e	.	.	.	.	.	.	.	.	.	.
4EE/ 4E	4c#/ 4e 4a	.	2a/	mère	.	2a/	mère	.	2cc#\	mère	.
4CC#/ 4C#	4e/ 4a 4cc#	.	.	.	.	.	.	.	.	.	.
=7	=7	=7	=7	=7	=7	=7	=7	=7	=7	=7	=7
4AAA/ 4AA	4e/ 4a 4cc#	.	4e/	au-	.	4a/	au-	.	4cc#\	au-	.
4EE/ 4E	(8g#\L 8b	<	4e/	-guste	.	(8g#/L	-gust-	.	(8b\L	-gust-	.
.	8a\J 8cc#	.	.	.	.	8a/J)	.	.	8cc#\J)	.	.
4EE/ 4E	4b\) 4dd	.	4e/	et	.	4b/	-e et	.	4dd\	-e et	.
4EE/ 4E	4g#\ 4ee	[[	4e/	che-	.	4g#/	che-	.	4b\	che-	.
=8	=8	=8	=8	=8	=8	=8	=8	=8	=8	=8	=8
4r	(([>2e/ 2b 2dd	.	2e/	-ri-	.	2g#/	-ri-	.	2b\	-ri-	.
(4G#\	.	.	.	.	.	.	.	.	.	.	.
4A\)	4e/])) 4a 4cc#	.	2c#/	-é	.	2a/	-é	.	2a\	-é	.
4AA/	4r	.	.	.	.	.	.	.	.	.	.
=9	=9	=9	=9	=9	=9	=9	=9	=9	=9	=9	=9
*	*^	*	*	*	*	*	*	*	*	*	*
8r	2ee\	2cc#\	f	2a^>/	Notre	.	2cc#^\	Notre	.	2ee^\	Notre	.
8A'\L	.	.	.	.	.	.	.	.	.	.	.	.
8E'\	.	.	.	.	.	.	.	.	.	.	.	.
8C#'\J	.	.	.	.	.	.	.	.	.	.	.	.
4AA/	4ee\	4cc#\	.	4c#/	es-	.	4cc#\	es-	.	4ee\	es-	.
4E^\	8ff#/L	4dd\	.	4e/	-pé-	.	4b\	-pé-	.	4dd\	-pé-	.
.	8gg#/J	.	.	.	.	.	.	.	.	.	.	.
*	*v	*v	*	*	*	*	*	*	*	*	*	*
=10	=10	=10	=10	=10	=10	=10	=10	=10	=10	=10	=10
(8AA/L	2cc#\ 2aa	.	2A/	-rance	.	2a/	-rance	.	2cc#\	-rance	.
8AA/	.	.	.	.	.	.	.	.	.	.	.
8E/	.	.	.	.	.	.	.	.	.	.	.
8C#/J)	.	.	.	.	.	.	.	.	.	.	.
4.A^\	4cc#\ 4ee	.	2c#/	en	.	2a/	en	.	2cc#\	en	.
.	4a\ 4cc#	.	.	.	.	.	.	.	.	.	.
8G#\	.	.	.	.	.	.	.	.	.	.	.
!LO:LB:g=original	!LO:LB:g=original	!	!LO:LB:g=original	!	!	!LO:LB:g=original	!	!	!LO:LB:g=original	!	!
=11	=11	=11	=11	=11	=11	=11	=11	=11	=11	=11	=11
4F#\	4a\ 4cc#	<	4f#/	cet-	.	4a/	cet-	.	4cc#\	cet-	.
!	!	!	!	!	!LO:DY:a	!	!	!LO:DY:a	!	!	!LO:DY:a
(8D'\L 8d	(8b'\L 8dd	.	(8d/L	-te	<	4f#/	-te	<	(8b\L	-te	<
8C#'\J 8c#	8cc#'\J 8ee	.	8c#/J)	.	.	.	.	.	8cc#\J)	.	.
4BB'\) 4B	4dd'\ 4ff#	.	4B/	tris-	.	4f#/	tris-	.	4dd\	tris-	.
4E'\ 4e	4b'\) 4gg#	[	4e/	-te	[	4g#/	-te	[	4b\	-te	[
=12	=12	=12	=12	=12	=12	=12	=12	=12	=12	=12	=12
*^	*	*	*	*	*	*	*	*	*	*	*
4e/	(2E\	((2b\ 2gg#	.	(4e^>/	vi-	.	2g#^>/	vi-	.	2b^>/	vi-	.
4d/	.	.	.	4d/)	.	.	.	.	.	.	.	.
4c#/	4A\)	8a\L)) 8aa	.	2c#/	-e	.	2a/	-e	.	2a/	-e	.
.	.	8ee\	.	.	.	.	.	.	.	.	.	.
4r	4ryy	8cc#\	.	.	.	.	.	.	.	.	.	.
.	.	8a\J	.	.	.	.	.	.	.	.	.	.
*v	*v	*	*	*	*	*	*	*	*	*	*	*
=13	=13	=13	=13	=13	=13	=13	=13	=13	=13	=13	=13
!	!	!	!	!	!LO:DY:a	!	!	!LO:DY:a	!	!	!LO:DY:a
8r	2g#/ 2b	p	2e/	Sa-	p	2g#/	Sa-	p	2b\	Sa-	p
8e\L	.	.	.	.	.	.	.	.	.	.	.
8e\	.	.	.	.	.	.	.	.	.	.	.
8e\J	.	.	.	.	.	.	.	.	.	.	.
4e\	4g#\ 4b 4ee	.	4e/	-lut	.	4g#/	-lut	.	4ee\	-lut	.
4e\	4b\ 4ee 4gg#	.	4e/	Ma-	.	4g#/	Ma-	.	4b\	Ma-	.
=14	=14	=14	=14	=14	=14	=14	=14	=14	=14	=14	=14
8r	2b\ 2ee 2gg# 2bb	.	2.e/	-ri-	.	2.g#/	-ri-	.	(2b/	-ri-	.
8e\L	.	.	.	.	.	.	.	.	.	.	.
8e\	.	.	.	.	.	.	.	.	.	.	.
8e\J	.	.	.	.	.	.	.	.	.	.	.
4e\	4b\ 4ee 4gg#	.	.	.	.	.	.	.	4g#/)	.	.
4e\	4g#\ 4b 4ee	.	4e/	-e	.	4g#/	-e	.	4b'/	-e	.
=15	=15	=15	=15	=15	=15	=15	=15	=15	=15	=15	=15
8r	2a\ 2b 2ff#	.	2B/	qu'a	.	2f#/	qu'a	.	2a/	qu'a	.
(8B\L	.	.	.	.	.	.	.	.	.	.	.
8d#X\	.	.	.	.	.	.	.	.	.	.	.
8c#\J)	.	.	.	.	.	.	.	.	.	.	.
4B\	4a\ 4cc#	.	4B/	ma	.	4d#X/	ma	.	4f#/	ma	.
4B\	4a\ 4dd#X	.	4B/	Pa-	.	4f#/	Pa-	.	4a/	Pa-	.
!LO:LB:g=original	!LO:LB:g=original	!	!LO:LB:g=original	!	!	!LO:LB:g=original	!	!	!LO:LB:g=original	!	!
=16	=16	=16	=16	=16	=16	=16	=16	=16	=16	=16	=16
!	!	!	!	!	!LO:DY:a	!	!	!LO:DY:a	!	!	!LO:DY:a
8r	(2a\ 2b 2dd#X	>	2B/	-tri-	p	2f#/	-tri-	p	2a/	-tri-	p
8B'\L	.	.	.	.	.	.	.	.	.	.	.
8BB'\	.	.	.	.	.	.	.	.	.	.	.
8B'\J	.	.	.	.	.	.	.	.	.	.	.
(8E\L	4g#\) 4b 4ee	]	2e/	-e	.	2e/	-e	.	2g#/	-e	.
8Dn\	.	.	.	.	.	.	.	.	.	.	.
8C#\	4r	.	.	.	.	.	.	.	.	.	.
8BB\J)	.	.	.	.	.	.	.	.	.	.	.
=17	=17	=17	=17	=17	=17	=17	=17	=17	=17	=17	=17
!	!	!	!	!	!	!	!	!LO:DY:a	!	!	!LO:DY:a
2AA/	4r	f	2A/	le	.	2cc#\	le	f	2ee\	le	f
.	4e/ 4a 4cc# 4ee	.	.	.	.	.	.	.	.	.	.
4C#/	4e/ 4a 4cc# 4ee	.	4c#/	Ciel	.	4cc#\	Ciel	.	4ee\	Ciel	.
4E\	4e/ 4b 4dd	.	4e/	don-	.	4b\	don-	.	4dd\	don-	.
=18	=18	=18	=18	=18	=18	=18	=18	=18	=18	=18	=18
!	!	!	!	!	!LO:DY:a	!	!	!	!	!	!
[2A\	4e/ 4a 4cc#	.	2a/	-na	f	2.a/	-na	.	2.cc#\	-na	.
.	4c#/ 4e 4a	.	.	.	.	.	.	.	.	.	.
4A\]	4e/ 4a 4cc#	.	4a^>/	Sal-	.	.	.	.	.	.	.
4G#\	4r	.	4g#^>/	-ve	.	4r	.	.	4r	.	.
=19	=19	=19	=19	=19	=19	=19	=19	=19	=19	=19	=19
4F#\	4a\ 4cc#	.	4f#^>/	Sal-	.	4a/	Sal-	.	(4cc#\	Sal-	.
(8D'\L 8d	(8b'\L 8dd	.	(8d/L	.	.	4f#/	.	.	8b\L	.	.
8C#'\J 8c#	8cc#'\J 8ee	.	8c#/J)	.	.	.	.	.	8cc#\J)	.	.
4BB'\ 4B	4dd'\ 4ff#	.	4B/	-ve	.	4f#/	-ve	.	4dd\	-ve	.
4E'\) 4e	4dd'\) 4gg#	.	4e/	Re-	.	4g#/	Re-	.	4b\	Re-	.
=20	=20	=20	=20	=20	=20	=20	=20	=20	=20	=20	=20
*	*^	*	*	*	*	*	*	*	*	*	*
!	!	!	!	!	!	!	!	!	!	!LO:TX:a:t=rall.	!	!
(2E\ 2B	(2gg#/	4dd\	sf	(4e/	-i-	.	2g#/	-gi-	.	2b^>/	-gi-	.
.	.	8ee\L	.	4d/)	.	.	.	.	.	.	.	.
.	.	8dd\J	.	.	.	.	.	.	.	.	.	.
4A^\)	4aa/)	4cc#\	.	2c#/	-na	.	2a/	-na	.	2a/	-na	.
!	!	!	!	!LO:LB:g=original	!	!	!LO:LB:g=original	!	!	!LO:LB:g=original	!	!
8E\L	4r	4ryy	.	.	.	.	.	.	.	.	.	.
8C#\J	.	.	.	.	.	.	.	.	.	.	.	.
!LO:LB:g=original	!LO:LB:g=original	!LO:LB:g=original	!	!	!	!	!	!	!	!	!	!
*	*v	*v	*	*	*	*	*	*	*	*	*	*
=21	=21	=21	=21	=21	=21	=21	=21	=21	=21	=21	=21
2AA\ 2A	2e/ 2cc# 2ee	f	1r	.	.	1r	.	.	1r	.	.
4.AA#X^\ 4.A#X	4.e/ 4.cc# 4.ee	.	.	.	.	.	.	.	.	.	.
8BB\ 8B	8f#/ 8b 8dd	.	.	.	.	.	.	.	.	.	.
=22	=22	=22	=22	=22	=22	=22	=22	=22	=22	=22	=22
2BB\ 2B	2f#/ 2b 2dd	.	1r	.	.	1r	.	.	1r	.	.
4.GG#\ 4.G#	4.e/ 4.b 4.dd	.	.	.	.	.	.	.	.	.	.
8AAn\ 8An	8e/ 8a 8cc#	.	.	.	.	.	.	.	.	.	.
=23	=23	=23	=23	=23	=23	=23	=23	=23	=23	=23	=23
4AA/ 4A	4e/ 4a 4cc#	<	1r	.	.	1r	.	.	1r	.	.
4FF#/ 4F#	4a/ 4dd	.	.	.	.	.	.	.	.	.	.
4CC#/ 4C#	4a\ 4ee	.	.	.	.	.	.	.	.	.	.
4DD/ 4D	4a\ 4ff#	[[	.	.	.	.	.	.	.	.	.
=24	=24	=24	=24	=24	=24	=24	=24	=24	=24	=24	=24
2EE/ 2E	2a^/ 2b	.	1r	.	.	1r	.	.	1r	.	.
2EE/ 2E	2g#^/ 2b 2ee	.	.	.	.	.	.	.	.	.	.
=25||	=25||	=25||	=25||	=25||	=25||	=25||	=25||	=25||	=25||	=25||	=25||
!	!	!	!	!	!LO:DY:a	!	!	!LO:DY:a	!LO:TX:a:t=2e. STROPHE.	!	!
4AA/	8cc#\L 8ee	mf	2a/	Rei-	f	2cc#\	Rei-	f	2ee\	Rei-	f
.	8cc#\ 8ee	.	.	.	.	.	.	.	.	.	.
4r	8cc#\ 8ee	.	.	.	.	.	.	.	.	.	.
.	8cc#\J 8ee	.	.	.	.	.	.	.	.	.	.
4A\	8cc#\L 8ee	.	4c#/	-ne	.	4cc#\	-ne	.	4ee\	-ne	.
.	8cc#\ 8ee	.	.	.	.	.	.	.	.	.	.
4E\	8dd\ 8ff#	.	4e/	des	.	4b\	des	.	4dd\	des	.
.	8dd\J 8gg#	.	.	.	.	.	.	.	.	.	.
!LO:PB:g=original	!LO:PB:g=original	!	!LO:PB:g=original	!	!	!LO:PB:g=original	!	!	!LO:PB:g=original	!	!
=26	=26	=26	=26	=26	=26	=26	=26	=26	=26	=26	=26
8AA/	8cc#\L 8aa	.	2a/	Cieux	.	2a/	Cieux	.	2cc#\	Cieux	.
8r	8a\ 8cc#	.	.	.	.	.	.	.	.	.	.
[4A\	8a\ 8cc#	.	.	.	.	.	.	.	.	.	.
.	8a\J 8cc#	.	.	.	.	.	.	.	.	.	.
(8A\L]	2a\ 2cc#	.	2a/	vers	.	2a/	vers	.	2cc#\	vers	.
8c#\	.	.	.	.	.	.	.	.	.	.	.
8d\	.	.	.	.	.	.	.	.	.	.	.
8d#X\J	.	.	.	.	.	.	.	.	.	.	.
=27	=27	=27	=27	=27	=27	=27	=27	=27	=27	=27	=27
8e\L)	4a\ 4cc#	.	4e/	toi	.	4a/	toi	.	4cc#\	toi	.
8E\J	.	.	.	.	.	.	.	.	.	.	.
4E\	8g#\L 8b	<	4e/	ma	.	(8g#/L	ma	.	(8b\L	ma	.
.	8a\J 8cc#	.	.	.	.	8a/J)	.	.	8cc#\J)	.	.
4E\	8b\L 8dd	.	4e/	voix	.	4b/	voix	.	4dd\	voix	.
.	8cc#\ 8ee	.	.	.	.	.	.	.	.	.	.
4E\	8dd\ 8ff#	.	4e/	trem-	.	4g#/	trem-	.	4b\	trem-	.
.	8dd\J 8gg#	[[	.	.	.	.	.	.	.	.	.
=28	=28	=28	=28	=28	=28	=28	=28	=28	=28	=28	=28
*	*^	*	*	*	*	*	*	*	*	*	*
[2AA/ [2E	2gg#/	(>8dd\L	.	2e/	-blan-	.	2g#/	-blan-	.	2b/	-blan-	.
.	.	8ee\	.	.	.	.	.	.	.	.	.	.
.	.	8ff#\	.	.	.	.	.	.	.	.	.	.
.	.	8gg#\J)	.	.	.	.	.	.	.	.	.	.
4AA/] 4E]	2ryy	(8aa\L	.	2a/	-te	.	2a/	-te	.	2a/	-te	.
.	.	8cc#\	.	.	.	.	.	.	.	.	.	.
4A\	.	8ff#\	.	.	.	.	.	.	.	.	.	.
.	.	8ee\J)	.	.	.	.	.	.	.	.	.	.
*	*v	*v	*	*	*	*	*	*	*	*	*	*
=29	=29	=29	=29	=29	=29	=29	=29	=29	=29	=29	=29
2AA/	8cc#\L 8ee	f	2A/	En	.	2cc#\	En	.	2ee\	En	.
.	8cc#\ 8ee	.	.	.	.	.	.	.	.	.	.
.	8cc#\ 8ee	.	.	.	.	.	.	.	.	.	.
.	8cc#\J 8ee	.	.	.	.	.	.	.	.	.	.
4A\	4cc#\ 4ee	.	4c#/	mon	.	4cc#\	mon	.	4ee\	mon	.
4E\	8dd\L 8ff#	.	4e/	e-	.	4b\	e-	.	4dd\	e-	.
.	8dd\J 8gg#	.	.	.	.	.	.	.	.	.	.
!LO:LB:g=original	!LO:LB:g=original	!	!LO:LB:g=original	!	!	!LO:LB:g=original	!	!	!LO:LB:g=original	!	!
=30	=30	=30	=30	=30	=30	=30	=30	=30	=30	=30	=30
4AA/	8cc#\L 8aa	.	2a/	-xil	.	2a/	-xil	.	2cc#\	-xil	.
.	8a\ 8cc#	.	.	.	.	.	.	.	.	.	.
[4AA^>/	8a\ 8cc#	.	.	.	.	.	.	.	.	.	.
.	8a\J 8cc#	.	.	.	.	.	.	.	.	.	.
8AA\L]	4a\ 4cc#	.	(4a/	s'é-	.	2a/	s'é-	.	2cc#\	s'é-	.
8AA\	.	.	.	.	.	.	.	.	.	.	.
8A'\	4r	.	4g#/)	.	.	.	.	.	.	.	.
8G#'\J	.	.	.	.	.	.	.	.	.	.	.
=31	=31	=31	=31	=31	=31	=31	=31	=31	=31	=31	=31
*	*^	*	*	*	*	*	*	*	*	*	*
!	!	!	!	!	!	!LO:DY:a	!	!	!LO:DY:a	!	!	!LO:DY:a
8F#'\L	4cc#/	4a\	.	4f#/	-lè-	<	4a/	-lè-	<	4cc#\	-lè-	<
8E'\	.	.	.	.	.	.	.	.	.	.	.	.
8D'\	8b/L	[>4f#\	.	(8d/L	-ve	.	4f#/	-ve	.	(8b\L	-ve	.
8C#'\J	8cc#/J	.	.	8c#/J)	.	.	.	.	.	8cc#\J)	.	.
!	!	!	!	!	!	!LO:DY:a	!	!	!LO:DY:a	!	!	!LO:DY:a
4BB^>/	8dd/L	8f#\L]	.	4B/	gé-	[ >	4f#/	gé-	[ >	4dd\	gé-	[ >
.	8ee/	8dd\	.	.	.	.	.	.	.	.	.	.
4E^\	8ff#/	8dd\	.	4e/	-mis-	]]	4g#/	-mis-	]]	4b\	-mis-	]]
.	8gg#/J	8dd\J	.	.	.	.	.	.	.	.	.	.
=32	=32	=32	=32	=32	=32	=32	=32	=32	=32	=32	=32	=32
(2EE/ 2E	(<8gg#/L	2dd\	.	2e/	-san-	.	2g#/	-san-	.	2b/	-san-	.
.	8ee/	.	.	.	.	.	.	.	.	.	.	.
.	8bb/	.	.	.	.	.	.	.	.	.	.	.
.	8ee/J)	.	.	.	.	.	.	.	.	.	.	.
4AA/) 4E	(8cc#\L 8aa	2ryy	.	2c#/	-te	.	2a/	-te	.	2a/	-te	.
.	8ee\	.	.	.	.	.	.	.	.	.	.	.
4r	8cc#\	.	.	.	.	.	.	.	.	.	.	.
.	8a\J)	.	.	.	.	.	.	.	.	.	.	.
=33||	=33||	=33||	=33||	=33||	=33||	=33||	=33||	=33||	=33||	=33||	=33||	=33||
!	!	!	!	!	!	!LO:DY:a	!	!	!LO:DY:a	!	!	!LO:DY:a
4r	8g#/L 8b	2ryy	p	2e/	Vier-	p	2g#/	Vier-	p	2b\	Vier-	p
.	8g#/ 8b	.	.	.	.	.	.	.	.	.	.	.
4E'\	8g#/ 8b	.	.	.	.	.	.	.	.	.	.	.
.	8g#/J 8b	.	.	.	.	.	.	.	.	.	.	.
4G#'\	8b/L	8g#\L	.	4e/	-ge	.	4g#/	-ge	.	4ee\	-ge	.
.	8cc#/	8g#\	.	.	.	.	.	.	.	.	.	.
4E'\	8dd#X/	8g#\	.	4e/	cle-	.	4g#/	cle-	.	4b\	cle-	.
.	8ee/J	8g#\J	.	.	.	.	.	.	.	.	.	.
!LO:LB:g=original	!LO:LB:g=original	!LO:LB:g=original	!	!LO:LB:g=original	!	!	!LO:LB:g=original	!	!	!LO:LB:g=original	!	!
*	*v	*v	*	*	*	*	*	*	*	*	*	*
=34	=34	=34	=34	=34	=34	=34	=34	=34	=34	=34	=34
*^	*	*	*	*	*	*	*	*	*	*	*
2ryy	4E\	8g#\L 8b	.	2.e/	-men-	.	2.g#/	-men-	.	(2b/	-men-	.
.	.	8ee\	.	.	.	.	.	.	.	.	.	.
.	2.E\	8g#\ 8b	.	.	.	.	.	.	.	.	.	.
.	.	8g#\J 8b	.	.	.	.	.	.	.	.	.	.
(8B/L	.	2g#/ 2b	.	.	.	.	.	.	.	4g#/)	.	.
8c#/	.	.	.	.	.	.	.	.	.	.	.	.
8d#X/	.	.	.	4e/	-te	.	4g#/	-te	.	4b/	-te	.
8e/J)	.	.	.	.	.	.	.	.	.	.	.	.
*v	*v	*	*	*	*	*	*	*	*	*	*	*
=35	=35	=35	=35	=35	=35	=35	=35	=35	=35	=35	=35
*	*^	*	*	*	*	*	*	*	*	*	*
4B\	2ryy	(8a\L 8b	.	2B/	qu'à	.	2f#/	qu'à	.	2a/	qu'à	.
.	.	8ff#\)	.	.	.	.	.	.	.	.	.	.
4BB/	.	8a'\ 8b	.	.	.	.	.	.	.	.	.	.
.	.	8a'\J 8b	.	.	.	.	.	.	.	.	.	.
4r	8b/L	8a\L	.	4B/	l'âme	.	4d#X/	l'âme	.	4f#/	l'âme	.
.	8b/	8a\	.	.	.	.	.	.	.	.	.	.
4B\	8cc#/	8a\	.	4B/	ai-	.	4f#/	ai-	.	4a/	ai-	.
.	8dd#X/J	8a\J	.	.	.	.	.	.	.	.	.	.
=36	=36	=36	=36	=36	=36	=36	=36	=36	=36	=36	=36	=36
(2.E\	2dd#X/	(>8f#\L	.	2B/	-man-	.	2f#/	-man-	.	2a/	-man-	.
.	.	8b\	.	.	.	.	.	.	.	.	.	.
.	.	8cc#\	.	.	.	.	.	.	.	.	.	.
.	.	8ddn\J	.	.	.	.	.	.	.	.	.	.
.	2ryy	8ee\L	.	2e/	-te	.	2e/	-te	.	2g#/	-te	.
.	.	8dd\	.	.	.	.	.	.	.	.	.	.
4EE/)	.	8ff#\	.	.	.	.	.	.	.	.	.	.
.	.	8ee\J)	.	.	.	.	.	.	.	.	.	.
*	*v	*v	*	*	*	*	*	*	*	*	*	*
=37	=37	=37	=37	=37	=37	=37	=37	=37	=37	=37	=37
!	!	!	!	!	!	!	!	!LO:DY:a	!	!	!LO:DY:a
2AA/ 2E	4r	f	1r	.	.	2cc#\	Le	f	2ee\	Le	f
.	8cc#\L 8ee	.	.	.	.	.	.	.	.	.	.
.	8cc#\J 8ee	.	.	.	.	.	.	.	.	.	.
4AA/ 4E	8cc#\L 8ee	.	.	.	.	4cc#\	Ciel	.	4ee\	Ciel	.
.	8cc#\ 8ee	.	.	.	.	.	.	.	.	.	.
4AA/ 4E	8ddn\ 8ff#	.	.	.	.	4b\	don-	.	4dd\	don-	.
.	8dd\J 8gg#	.	.	.	.	.	.	.	.	.	.
!LO:LB:g=original	!LO:LB:g=original	!	!LO:LB:g=original	!	!	!LO:LB:g=original	!	!	!LO:LB:g=original	!	!
=38	=38	=38	=38	=38	=38	=38	=38	=38	=38	=38	=38
!	!	!	!	!	!LO:DY:a	!	!	!	!	!	!
4AA/ 4E	(8cc#\L 8aa	.	2a/	Le	f	[2a/	-na	.	[2cc#\	-na	.
.	8a\) 8cc#	.	.	.	.	.	.	.	.	.	.
[>4AA/	8a'\ 8cc#	.	.	.	.	.	.	.	.	.	.
.	8a'\J 8cc#	.	.	.	.	.	.	.	.	.	.
8AA\L]	2a\ 2cc#	.	4a/	Ciel	.	4a/]	.	.	4cc#\]	.	.
8AA\	.	.	.	.	.	.	.	.	.	.	.
8A'\	.	.	4g#/	don-	.	4r	.	.	4r	.	.
8G#'\J	.	.	.	.	.	.	.	.	.	.	.
=39	=39	=39	=39	=39	=39	=39	=39	=39	=39	=39	=39
*	*^	*	*	*	*	*	*	*	*	*	*
!	!	!	!	!	!	!	!	!	!	!	!	!LO:DY:a
8F#'\L	4cc#\	4a\	<	4f#/	-na	.	4a/	Sal-	.	(4cc#\	Sal-	<
8E'\	.	.	.	.	.	.	.	.	.	.	.	.
8D'\	8b/L	4f#\	.	(8d^>/L	Sal-	.	2f#^>/	-ve	.	8b\L	.	.
8C#'\J	8cc#/J	.	.	8c#/J)	.	.	.	.	.	8cc#\J)	.	.
!	!	!	!	!	!	!	!	!	!	!	!	!LO:DY:a
4BB/	8dd/L	8f#\L	.	4B/	-ve	.	.	.	.	4dd\	-ve	[ >
.	8ee/	8dd\	[	.	.	.	.	.	.	.	.	.
4E\	8ee/	8dd\	.	4e/	Re-	.	4g#/	Re-	.	4b\	Re-	]]
.	8ee/J	8dd\J	.	.	.	.	.	.	.	.	.	.
*	*v	*v	*	*	*	*	*	*	*	*	*	*
=40	=40	=40	=40	=40	=40	=40	=40	=40	=40	=40	=40
2AA/ 2E	(8dd\L 8gg#	>	2e^>/	-gi-	.	2g#^>/	-gi-	.	2b^\	-gi-	.
.	8ee\	.	.	.	.	.	.	.	.	.	.
.	8dd\ 8bb	.	.	.	.	.	.	.	.	.	.
.	8dd\J) 8gg#	.	.	.	.	.	.	.	.	.	.
4AA/ 4E	4cc#\ 4aa	]	2A/	-na	.	2a/	-na	.	2a\	-na	.
4r	4r	.	.	.	.	.	.	.	.	.	.
=41||	=41||	=41||	=41||	=41||	=41||	=41||	=41||	=41||	=41||	=41||	=41||
!	!LO:TX:b:t=marcato	!	!	!	!	!	!	!	!	!	!
2EE/ 2E	2e/ 2g# 2ee	f	1r	.	.	1r	.	.	1r	.	.
!	!	!	!LO:LB:g=original	!	!	!LO:LB:g=original	!	!	!LO:LB:g=original	!	!
4FF#/ 4F#	4e/ 4a 4ee	.	.	.	.	.	.	.	.	.	.
4GG#/ 4G#	4e/ 4b 4ee	.	.	.	.	.	.	.	.	.	.
!LO:LB:g=original	!LO:LB:g=original	!	!	!	!	!	!	!	!	!	!
=42	=42	=42	=42	=42	=42	=42	=42	=42	=42	=42	=42
*	*^	*	*	*	*	*	*	*	*	*	*
4AA\ 4A	4cc#/ 4ee	4e\	f	1r	.	.	1r	.	.	1r	.	.
4BB\ 4B	4ee/	8g#\L	.	.	.	.	.	.	.	.	.	.
.	.	8dd\J	.	.	.	.	.	.	.	.	.	.
4C#\ 4c#	2ryy	4a\ 4cc#	.	.	.	.	.	.	.	.	.	.
4DD/ 4D	.	4a^<\ 4b 4ff#	.	.	.	.	.	.	.	.	.	.
=43	=43	=43	=43	=43	=43	=43	=43	=43	=43	=43	=43	=43
2EE/ 2E	(4b/	2g#\	<	1r	.	.	1r	.	.	1r	.	.
.	8cc#/L	.	.	.	.	.	.	.	.	.	.	.
.	8dd/J)	.	.	.	.	.	.	.	.	.	.	.
4EE/ 4E	4ee/	4g#\	[ >	.	.	.	.	.	.	.	.	.
4EE/ 4E	8ff#/L	4dd\	.	.	.	.	.	.	.	.	.	.
.	8gg#/J	.	.	.	.	.	.	.	.	.	.	.
=44	=44	=44	=44	=44	=44	=44	=44	=44	=44	=44	=44	=44
(2EE/ [2E	(2gg#/	(>2dd\	]	1r	.	.	1r	.	.	1r	.	.
4AA/) 4E]	4aa/)	4cc#\)	.	.	.	.	.	.	.	.	.	.
4r	4r	4ryy	.	.	.	.	.	.	.	.	.	.
=45||	=45||	=45||	=45||	=45||	=45||	=45||	=45||	=45||	=45||	=45||	=45||	=45||
!	!	!	!	!	!	!LO:DY:a	!	!	!LO:DY:a	!LO:TX:a:t=3e. STROPHE.	!	!LO:DY:a
4AA\ 4A	2cc#\ 2ee	2a\	mf	2a/	Pau-	mf	2cc#\	Pau-	mf	2ee\	Pau-	mf
!LO:TUP:a	!	!	!	!	!	!	!	!	!	!	!	!
(12c#\L	.	.	.	.	.	.	.	.	.	.	.	.
12d\	.	.	.	.	.	.	.	.	.	.	.	.
12d#X\J	.	.	.	.	.	.	.	.	.	.	.	.
4e\)	4cc#\ 4ee	4a\	.	4c#/	-vres	.	4cc#\	-vres	.	4ee\	-vres	.
4r	12ee/L	4dd\	.	4e/	en-	.	4b\	en-	.	4dd\	en-	.
.	12ff#/	.	.	.	.	.	.	.	.	.	.	.
.	12gg#/J	.	.	.	.	.	.	.	.	.	.	.
*	*v	*v	*	*	*	*	*	*	*	*	*	*
=46	=46	=46	=46	=46	=46	=46	=46	=46	=46	=46	=46
4AA\ 4A	4cc#\ 4aa	.	2a/	-fans	.	2a/	-fans	.	2cc#\	-fans	.
!	!LO:TUP:a	!	!	!	!	!	!	!	!	!	!
2A\	(12a\L	.	.	.	.	.	.	.	.	.	.
.	12b\	.	.	.	.	.	.	.	.	.	.
.	12b#X\J)	.	.	.	.	.	.	.	.	.	.
.	4cc#\	.	2a/	du-	.	2a/	du-	.	2cc#\	du-	.
8A\L	4a\ 4cc#	.	.	.	.	.	.	.	.	.	.
8c#\J	.	.	.	.	.	.	.	.	.	.	.
!LO:LB:g=original	!LO:LB:g=original	!	!LO:LB:g=original	!	!	!LO:LB:g=original	!	!	!LO:LB:g=original	!	!
=47	=47	=47	=47	=47	=47	=47	=47	=47	=47	=47	=47
*	*^	*	*	*	*	*	*	*	*	*	*
4e\	4a\ 4cc#	2.ryy	.	4e/	-ne	.	4a/	-ne	.	4cc#\	-ne	.
!	!LO:TUP:a	!	!	!	!	!	!	!	!	!	!	!
2E\	12g#\L 12b	.	.	4e/	cou-	.	(8g#/L	cou-	.	(8b\L	cou-	.
.	12g#\ 12b	.	.	.	.	.	.	.	.	.	.	.
.	.	.	.	.	.	.	8a/J)	.	.	8cc#\J)	.	.
.	12a\J 12cc#	.	.	.	.	.	.	.	.	.	.	.
.	4b\ 4dd	.	.	4e/	-pa-	.	4b/	-pa-	.	4dd\	-pa-	.
*	*Xtuplet	*	*	*	*	*	*	*	*	*	*	*
4E\	12gg#/L	4dd\	.	4e/	-ble	.	4g#/	-ble	.	4b\	-ble	.
.	12ee/	.	.	.	.	.	.	.	.	.	.	.
.	12bb/J	.	.	.	.	.	.	.	.	.	.	.
*	*v	*v	*	*	*	*	*	*	*	*	*	*
=48	=48	=48	=48	=48	=48	=48	=48	=48	=48	=48	=48
4AA/	((2dd\ 2gg#	.	2e/	Mè-	.	2g#/	Mè-	.	2b\	Mè-	.
!LO:TUP:a	!	!	!	!	!	!	!	!	!	!	!
(12E\L	.	.	.	.	.	.	.	.	.	.	.
12F#\	.	.	.	.	.	.	.	.	.	.	.
12E\J)	.	.	.	.	.	.	.	.	.	.	.
4AA/	4cc#\)) 4aa	.	2a/	-re	.	2a/	-re	.	2a\	-re	.
4r	4r	.	.	.	.	.	.	.	.	.	.
=49	=49	=49	=49	=49	=49	=49	=49	=49	=49	=49	=49
*	*^	*	*	*	*	*	*	*	*	*	*
4AA/	2a\ 2cc# 2ee	2.ryy	.	2A^>/	Nous	.	2cc#^\	Nous	.	2ee^\	Nous	.
!LO:TUP:a	!	!	!	!	!	!	!	!	!	!	!	!
(12c#\L	.	.	.	.	.	.	.	.	.	.	.	.
12d\	.	.	.	.	.	.	.	.	.	.	.	.
12d#X\J)	.	.	.	.	.	.	.	.	.	.	.	.
4e\	4a\ 4cc# 4ee	.	.	4c#/	t'im-	.	4cc#\	t'im-	.	4ee\	t'im-	.
4E\	12ee/L	4dd\	.	4e/	-plo-	.	4b\	-plo-	.	4dd\	-plo-	.
.	12ff#/	.	.	.	.	.	.	.	.	.	.	.
.	12gg#/J	.	.	.	.	.	.	.	.	.	.	.
=50	=50	=50	=50	=50	=50	=50	=50	=50	=50	=50	=50	=50
4AA/	4aa/	4cc#\	.	[2a/	-rons	.	2a/	-rons	.	2cc#\	-rons	.
*	*tuplet	*	*	*	*	*	*	*	*	*	*	*
!	!LO:TUP:a	!	!	!	!	!	!	!	!	!	!	!
2A\	12a\L	4ryy	.	.	.	.	.	.	.	.	.	.
.	12b\	.	.	.	.	.	.	.	.	.	.	.
.	12b#X\J	.	.	.	.	.	.	.	.	.	.	.
.	4cc#\	2ryy	.	4a/]	.	.	2a/	le	.	2cc#\	le	.
*Xtuplet	*	*	*	*	*	*	*	*	*	*	*	*
12A\L	4cc#/	.	.	4g#/	le	.	.	.	.	.	.	.
12a\	.	.	.	.	.	.	.	.	.	.	.	.
12g#\J	.	.	.	.	.	.	.	.	.	.	.	.
!LO:PB:g=original	!LO:PB:g=original	!LO:PB:g=original	!	!LO:PB:g=original	!	!	!LO:PB:g=original	!	!	!LO:PB:g=original	!	!
=51	=51	=51	=51	=51	=51	=51	=51	=51	=51	=51	=51	=51
!	!	!	!	!	!	!LO:DY:a	!	!	!LO:DY:a	!	!	!LO:DY:a
4f#\	4cc#\	4a\	.	4f#/	front	<	4a/	front	<	4cc#\	front	<
8dn\L	8b#X/L	8f#\L	.	8d/L	dans	.	4f#/	dans	.	8b\L	dans	.
8c#\J	8cc#/J	8f#\J	.	8c#/J	.	.	.	.	.	8cc#\J	.	.
!	!	!	!	!	!	!LO:DY:a	!	!	!LO:DY:a	!	!	!LO:DY:a
4B\	4dd/	4f#\	.	4B/	la	[ >	4f#/	la	[ >	4dd\	la	[ >
4E\	(12gg#/L	4dd\	.	4e/	pous-	]]	4g#/	pous-	]]	4b\	pous-	]]
.	12ee/	.	.	.	.	.	.	.	.	.	.	.
.	12gg#/J)	.	.	.	.	.	.	.	.	.	.	.
*	*v	*v	*	*	*	*	*	*	*	*	*	*
=52	=52	=52	=52	=52	=52	=52	=52	=52	=52	=52	=52
*^	*	*	*	*	*	*	*	*	*	*	*
4E/	2AA\	2dd\ 2ee 2bb	.	(4e/	-siè-	.	2g#/	-siè-	.	2b/	-siè-	.
*tuplet	*	*	*	*	*	*	*	*	*	*	*	*
!LO:TUP:a	!	!	!	!	!	!	!	!	!	!	!	!
12E\L	.	.	.	4d/)	.	.	.	.	.	.	.	.
12F#\	.	.	.	.	.	.	.	.	.	.	.	.
12G#\J	.	.	.	.	.	.	.	.	.	.	.	.
4AA\ 4A	2ryy	4cc#\ 4aa	.	2c#/	-re	.	4a/	-re	.	2a/	-re	.
4r	.	4r	.	.	.	.	4ryy	.	.	.	.	.
*v	*v	*	*	*	*	*	*	*	*	*	*	*
=53||	=53||	=53||	=53||	=53||	=53||	=53||	=53||	=53||	=53||	=53||	=53||
!	!	!	!	!	!	!	!	!	!	!	!LO:DY:a
2EE/ 2E	4b\	p	2e/	Dou-	.	2g#/	Dou-	.	2b\	Dou-	p
!	!LO:TUP:a	!	!	!	!	!	!	!	!	!	!
.	(12b\L	.	.	.	.	.	.	.	.	.	.
.	12ee\	.	.	.	.	.	.	.	.	.	.
.	12b\J)	.	.	.	.	.	.	.	.	.	.
4EE/ 4E	4g#/	.	4e/	-ce	.	4g#/	-ce	.	4ee\	-ce	.
!	!LO:TUP:b	!	!	!	!	!	!	!	!	!	!
4EE/ 4E	(12g#/L	.	4e/	lu-	.	4g#/	lu-	.	4b\	lu-	.
.	12b/	.	.	.	.	.	.	.	.	.	.
.	12g#/J)	.	.	.	.	.	.	.	.	.	.
=54	=54	=54	=54	=54	=54	=54	=54	=54	=54	=54	=54
4EE/ 4E	4e/	.	[2e/	-mie-	.	[2g#/	-mie-	.	(2b/	-mie-	.
!	!LO:TUP:b	!	!	!	!	!	!	!	!	!	!
4r	(12e/L	.	.	.	.	.	.	.	.	.	.
.	12g#/	.	.	.	.	.	.	.	.	.	.
.	12e/J)	.	.	.	.	.	.	.	.	.	.
4EE/ 4E	4B/	.	4e/]	.	.	4g#/]	.	.	4g#/)	.	.
4r	(12B/L	.	4e/	-re	.	4g#/	-re	.	4b/	-re	.
.	12e/	.	.	.	.	.	.	.	.	.	.
.	12g#/J)	.	.	.	.	.	.	.	.	.	.
!LO:LB:g=original	!LO:LB:g=original	!	!LO:LB:g=original	!	!	!LO:LB:g=original	!	!	!LO:LB:g=original	!	!
=55	=55	=55	=55	=55	=55	=55	=55	=55	=55	=55	=55
!	!LO:TUP:b	!	!	!	!	!	!	!	!	!	!
4DD#X/ 4D#X	(12f#/L	.	2B/	toi	.	2f#/	toi	.	2a/	toi	.
.	12B/	.	.	.	.	.	.	.	.	.	.
.	12f#/J)	.	.	.	.	.	.	.	.	.	.
4r	4b\	.	.	.	.	.	.	.	.	.	.
!	!LO:TUP:a	!	!	!	!	!	!	!	!	!	!
4BB\ 4B	(12b\L	.	4B/	qua	.	4d#X/	qu'a	.	4f#/	qu'a	.
.	12f#\	.	.	.	.	.	.	.	.	.	.
.	12b\J)	.	.	.	.	.	.	.	.	.	.
4r	4dd#X\	.	4B/	la	.	4f#/	la	.	4a/	la	.
=56	=56	=56	=56	=56	=56	=56	=56	=56	=56	=56	=56
!	!LO:TUP:a	!	!	!	!	!	!	!	!	!	!
2BBB/ 2BB	(12dd#X\L	.	(2B/	ter-	.	(2f#/	ter-	.	(2a/	ter-	.
.	12b\	.	.	.	.	.	.	.	.	.	.
.	12dd#\J)	.	.	.	.	.	.	.	.	.	.
.	4ff#\	.	.	.	.	.	.	.	.	.	.
4EE/ 4E	(12ff#\L	<	2e/)	-re	.	2e/)	-re	.	2g#/)	-re	.
.	12ee\	.	.	.	.	.	.	.	.	.	.
.	12dd#\	.	.	.	.	.	.	.	.	.	.
4r	12ee\	.	.	.	.	.	.	.	.	.	.
.	12ddn\	.	.	.	.	.	.	.	.	.	.
.	12b\J)	[[	.	.	.	.	.	.	.	.	.
=57	=57	=57	=57	=57	=57	=57	=57	=57	=57	=57	=57
*	*^	*	*	*	*	*	*	*	*	*	*
!	!	!	!	!	!	!LO:DY:a	!	!	!LO:DY:a	!	!	!LO:DY:a
4AA/	2a\ 2cc# 2ee	2.ryy	f	2A/	Le	f	2cc#\	Le	f	2ee\	Le	f
!LO:TUP:a	!	!	!	!	!	!	!	!	!	!	!	!
(12c#\L	.	.	.	.	.	.	.	.	.	.	.	.
12d\	.	.	.	.	.	.	.	.	.	.	.	.
12d#X\J)	.	.	.	.	.	.	.	.	.	.	.	.
4e\	4a\ 4cc# 4ee	.	.	4c#/	ciel	.	4cc#\	ciel	.	4ee\	ciel	.
*	*Xtuplet	*	*	*	*	*	*	*	*	*	*	*
4E\	12ee/L	4dd\	.	4e/	don-	.	4b\	don-	.	4dd\	don-	.
.	12ff#/	.	.	.	.	.	.	.	.	.	.	.
.	12gg#/J	.	.	.	.	.	.	.	.	.	.	.
=58	=58	=58	=58	=58	=58	=58	=58	=58	=58	=58	=58	=58
4AA/	4aa/	4cc#\	.	2a/	-na	.	[2a/	-na	.	[2cc#\	-na	.
*	*	*tuplet	*	*	*	*	*	*	*	*	*	*
12c#\L	4ryy	(12a\L	.	.	.	.	.	.	.	.	.	.
12d\	.	12b\	.	.	.	.	.	.	.	.	.	.
12d#X\J	.	12b#X\J)	.	.	.	.	.	.	.	.	.	.
4e\	2ryy	4cc#\	.	4a/	Sal-	.	2a/]	.	.	2cc#\]	.	.
*Xtuplet	*	*	*	*	*	*	*	*	*	*	*	*
12A\L	.	4cc#\	.	4g#/	-ve	.	.	.	.	.	.	.
12a\	.	.	.	.	.	.	.	.	.	.	.	.
12g#\J	.	.	.	.	.	.	.	.	.	.	.	.
!LO:LB:g=original	!LO:LB:g=original	!LO:LB:g=original	!	!LO:LB:g=original	!	!	!LO:LB:g=original	!	!	!LO:LB:g=original	!	!
=59	=59	=59	=59	=59	=59	=59	=59	=59	=59	=59	=59	=59
!	!	!	!	!	!	!	!	!	!	!LO:TX:a:t=piu lento.	!	!
4f#\	4a\ 4cc#	4ryy	.	(>4f#/	Sal-	.	4a/	Sal-	.	4cc#\	Sal-	.
!LO:TX:b:t=piu lento.	!	!	!	!	!	!	!	!	!	!	!	!
8dn\L	8b/L	8f#\L	.	8d/L	.	.	4f#/	.	.	8b\L	.	.
8c#\J	8cc#/J	8f#\J	.	8c#/J	.	.	.	.	.	8cc#\J	.	.
4B\	4dd/	4f#\	.	4B/)	-ve	.	4f#/	-ve	.	4dd\	-ve	.
*	*Xtuplet	*	*	*	*	*	*	*	*	*	*	*
4E\	12ee/L	4dd\	.	4e/	Re-	.	4g#/	Re-	.	4b\	Re-	.
.	12ff#/	.	.	.	.	.	.	.	.	.	.	.
.	12gg#/J	.	.	.	.	.	.	.	.	.	.	.
*	*v	*v	*	*	*	*	*	*	*	*	*	*
=60	=60	=60	=60	=60	=60	=60	=60	=60	=60	=60	=60
4AA/ 4E	2dd\ 2ee 2bb	sf >	2e^>/	-gi-	.	2g#^>/	-gi-	.	2b^>\	-gi-	.
*tuplet	*	*	*	*	*	*	*	*	*	*	*
!LO:TUP:a	!	!	!	!	!	!	!	!	!	!	!
12E\L	.	.	.	.	.	.	.	.	.	.	.
12F#\	.	.	.	.	.	.	.	.	.	.	.
12G#\J	.	.	.	.	.	.	.	.	.	.	.
2AA\ 2A	2cc#\ 2aa	]	2A^>/	-na	.	2a^>/	-na	.	2a^>/	-na	.
=61	=61	=61	=61	=61	=61	=61	=61	=61	=61	=61	=61
2AAA/ 2AA	2e/ 2a 2cc# 2ee	f	1r	.	.	1r	.	.	1r	.	.
4EE/ 4E	4e/ 4a 4cc# 4ee	.	.	.	.	.	.	.	.	.	.
4DD/ 4D	4e/ 4g# 4b 4ee	.	.	.	.	.	.	.	.	.	.
=62	=62	=62	=62	=62	=62	=62	=62	=62	=62	=62	=62
!	!LO:TX:b:t=élargissant.	!	!	!	!	!	!	!	!	!	!
2CC#/ 2C#	2e/ 2a 2cc# 2ee	.	1r	.	.	1r	.	.	1r	.	.
4..DDD^>/ 4..DD	4..fn^\ 4..a 4..dd 4..ffn	.	.	.	.	.	.	.	.	.	.
16AAA/ 16AA	16e\ 16a 16cc# 16ee	.	.	.	.	.	.	.	.	.	.
=63	=63	=63	=63	=63	=63	=63	=63	=63	=63	=63	=63
1AAA;< 1AA	1e; 1a 1cc# 1ee	.	1r	.	.	1r	.	.	1r	.	.
==	==	==	==	==	==	==	==	==	==	==	==
*-	*-	*-	*-	*-	*-	*-	*-	*-	*-	*-	*-
!!!RDF**kern: > = above
!!!RDF**kern: < = below
!!!system-decoration: [(s1,s2,s3)][(s4,s5)]
!!!ENC: Andrzej Gręziak
!!!END: 2022-08-08
!!!ENC: Julita Ruszuk
!!!END: 2022-00-04
!!!YEC: Copyright 2022 Narodowy Instytut Fryderyka Chopina (https://polishscores.org)
!!!YEM: License CC-BY-4.0 (https://creativecommons.org/licenses/by/4.0)
